Hydrogen/cursors/24/bottom_right_corner.svg

<?xml version="1.0" encoding="UTF-8" standalone="no"?>
<svg
   width="200"
   height="200"
   viewBox="0 0 200 200"
   fill="none"
   version="1.1"
   id="svg27"
   xmlns="http://www.w3.org/2000/svg"
   xmlns:svg="http://www.w3.org/2000/svg">
  <path
     id="path2"
     style="fill:#000000;stroke:#ffffff;stroke-width:9.9168;stroke-miterlimit:4;stroke-dasharray:none;stroke-opacity:1;filter:url(#filter0_d)"
     d="m 52.623047,25.623047 c -6.9099,0 -13.819697,2.636103 -19.091797,7.908203 -10.5441,10.5441 -10.5441,27.639494 0,38.183594 8.574538,8.574537 21.480752,10.175768 31.673828,4.804687 l 58.275392,58.275389 c -5.37096,10.19311 -3.77163,23.09946 4.80273,31.67383 10.544,10.544 27.6396,10.544 38.1836,0 10.545,-10.544 10.545,-27.64155 0,-38.18555 -8.57479,-8.57478 -21.48074,-10.17464 -31.67383,-4.80273 L 76.519531,65.207031 C 81.891478,55.01376 80.289707,42.106113 71.714844,33.53125 66.442744,28.25915 59.532947,25.623047 52.623047,25.623047 Z"
     transform="matrix(1.0083898,0,0,1.0083897,0.21206388,0.17800313)" />
  <defs
     id="defs25">
    <filter
       id="filter0_d"
       x="19.6233"
       y="23.6238"
       width="160.752"
       height="160.752"
       filterUnits="userSpaceOnUse"
       color-interpolation-filters="sRGB">
      <feFlood
         flood-opacity="0"
         result="BackgroundImageFix"
         id="feFlood10" />
      <feColorMatrix
         in="SourceAlpha"
         type="matrix"
         values="0 0 0 0 0 0 0 0 0 0 0 0 0 0 0 0 0 0 127 0"
         id="feColorMatrix12" />
      <feOffset
         dy="4"
         id="feOffset14" />
      <feGaussianBlur
         stdDeviation="3"
         id="feGaussianBlur16" />
      <feColorMatrix
         type="matrix"
         values="0 0 0 0 0 0 0 0 0 0 0 0 0 0 0 0 0 0 0.2 0"
         id="feColorMatrix18" />
      <feBlend
         mode="normal"
         in2="BackgroundImageFix"
         result="effect1_dropShadow"
         id="feBlend20" />
      <feBlend
         mode="normal"
         in="SourceGraphic"
         in2="effect1_dropShadow"
         result="shape"
         id="feBlend22" />
    </filter>
  </defs>
</svg>

<?xml version="1.0" encoding="UTF-8" standalone="no"?>
<svg
   width="200"
   height="200"
   viewBox="0 0 200 200"
   fill="none"
   version="1.1"
   id="svg27"
   xmlns="http://www.w3.org/2000/svg"
   xmlns:svg="http://www.w3.org/2000/svg">
  <path
     id="path2"
     style="fill:#000000;filter:url(#filter0_d);stroke:#ffffff;stroke-opacity:1;stroke-width:5;stroke-miterlimit:4;stroke-dasharray:none"
     d="M 52.623047 25.623047 C 45.713147 25.623047 38.80335 28.25915 33.53125 33.53125 C 22.98715 44.07535 22.98715 61.170744 33.53125 71.714844 C 42.105788 80.289381 55.012002 81.890612 65.205078 76.519531 L 123.48047 134.79492 C 118.10951 144.98803 119.70884 157.89438 128.2832 166.46875 C 138.8272 177.01275 155.9228 177.01275 166.4668 166.46875 C 177.0118 155.92475 177.0118 138.8272 166.4668 128.2832 C 157.89201 119.70842 144.98606 118.10856 134.79297 123.48047 L 76.519531 65.207031 C 81.891478 55.01376 80.289707 42.106113 71.714844 33.53125 C 66.442744 28.25915 59.532947 25.623047 52.623047 25.623047 z " />
  <defs
     id="defs25">
    <filter
       id="filter0_d"
       x="19.6233"
       y="23.6238"
       width="160.752"
       height="160.752"
       filterUnits="userSpaceOnUse"
       color-interpolation-filters="sRGB">
      <feFlood
         flood-opacity="0"
         result="BackgroundImageFix"
         id="feFlood10" />
      <feColorMatrix
         in="SourceAlpha"
         type="matrix"
         values="0 0 0 0 0 0 0 0 0 0 0 0 0 0 0 0 0 0 127 0"
         id="feColorMatrix12" />
      <feOffset
         dy="4"
         id="feOffset14" />
      <feGaussianBlur
         stdDeviation="3"
         id="feGaussianBlur16" />
      <feColorMatrix
         type="matrix"
         values="0 0 0 0 0 0 0 0 0 0 0 0 0 0 0 0 0 0 0.2 0"
         id="feColorMatrix18" />
      <feBlend
         mode="normal"
         in2="BackgroundImageFix"
         result="effect1_dropShadow"
         id="feBlend20" />
      <feBlend
         mode="normal"
         in="SourceGraphic"
         in2="effect1_dropShadow"
         result="shape"
         id="feBlend22" />
    </filter>
  </defs>
</svg>
